X:1
T:Title
%%score { ( 1 3 ) | ( 2 4 5 ) }
L:1/8
Q:1/4=192
M:2/2
K:Eb
V:1 treble nm="Grand Piano"
V:3 treble 
V:2 bass 
V:4 bass 
V:5 bass 
V:1
 G4 F2 G2 | A4 F4 | B8 | [Ee]4 [Fd]2 [Gc]2 | [DB]4 [Ec]4 | [DB]8 | d4 c2 B2 | e4 E4 | A4 B2 A2 | %9
w: Watler~B.~Gilbert * *|||||||||
 G8 | B4 c2 e2 | [EG]4 [DF]4 | [G,E]8 |] %13
w: ||||
V:2
 [E,B,E]4 [E,A,E]2 [E,B,E]2 | [E,CE]4 [E,A,D]4 | [E,G,E]8 | [C,=A,]4 [D,B,]2 [=E,B,]2 | %4
 [F,B,]4 [F,=A,]4 | [B,,B,]8 | [B,F]4 [A,CF]2 [A,DF]2 | [G,B,E]4 [G,B,]4 | [F,CE]4 [B,,B,]4 | %9
 [E,B,E]8 | [G,B,E]4 [A,E]2 [A,CE]2 | B,8 | E,8 |] %13
V:3
 x8 | x8 | x8 | x8 | x8 | x8 | x8 | x8 | z4 D4 | x8 | x8 | x8 | x8 |] %13
V:4
 x8 | x8 | x8 | x8 | x8 | x8 | x8 | x8 | x8 | x8 | x8 | z4 z2 A,2 | x8 |] %13
V:5
 x8 | x8 | x8 | x8 | x8 | x8 | x8 | x8 | x8 | x8 | x8 | z4 B,,4 | x8 |] %13

